X: 182
T:Forglen House, a Strathspey
B:William Marshall's Scottish Airs, Melodies, Strathspeys, Reels &c (1822)
C:William Marshall
L:1/8
M:C
O:Scotland
R:Slow Strathspey
Z:Clark Bernst + Richard Robinson
%%Caption:Altho' this Strathspey was composed by Mr. Marshall it appears in
%%Caption:Mr. C. Duff's Collection under another name.
%%Page:28 - 1
F:http://richardrobinson.tunebook.org.uk/tune/4025
%%TBL:{"version":1,"type":"tune","id":"4025"}
K:C minor
%%staves {1 2}
V:1
"^Slow"
G | \
.c.c.c.G "_rf"[A,A]3 F | .G.G G(E/G/) (F/E/)(.D/.C/) B,D | \
(!trill!E/D/E/F/) (!trill!G/F/G/=A/) (!trill!B/A/B/c/) (BG) | (G/F/)E/D/ (BD) C2 (CG) |
.c.c.c.G "_rf"[A,A]3 F | .G.G GE/G/ (F/E/)(.D/.C/) B,D | \
(!trill!E/D/E/F/) (!trill!G/F/G/=A/) (!trill!B/A/B/c/) Bf | (e/d/)(c/B/) {g}f{e}d {=B}~c2 (c/d/e/f/) |]
(g<c)(!trill!g>f) gc c(d/e/) | !=!~f>gfd !=!~B>cdf | \
(g<c)(g>f) gcce | (e/d/)c/B/ (g/f/)e/d/ {B}c2 (c/d/e/f/) |
(gc)(!trill!g>f) gc c(d/e/) | (f/g/)a/b/ (f/e/)d/c/ !=!~B>cdf | \
(gb) (fg) (df) (cd) |B(F/B/) G/F/E/D/ {D}C2 C |]
V:2 middle=d clef=bass
L:1/4
z/ | cef>d | ecBB | cd/e/ee | fg/G/ c/G/ [Cc] | \
cefd | ecBB | cedB | Ggcc |] \
[cc'] [cc'] [cc'] [cc'] | [Bb] [Bb] [Bb] [Bb] | [cc'] [cc'] [cc'] [cc'] | [Gg] [Gg] [cc'] [cc'] | \
[cc'] [cc'] [cc'] [cc']  | bfBB | edGc | fgcc/ |]

